gnome/icons/Varda/apps/scalable/org.gnome.font-viewer.svg

<?xml version="1.0" encoding="UTF-8" standalone="no"?>
<svg
   xmlns:dc="http://purl.org/dc/elements/1.1/"
   xmlns:cc="http://creativecommons.org/ns#"
   xmlns:rdf="http://www.w3.org/1999/02/22-rdf-syntax-ns#"
   xmlns:svg="http://www.w3.org/2000/svg"
   xmlns="http://www.w3.org/2000/svg"
   xmlns:sodipodi="http://sodipodi.sourceforge.net/DTD/sodipodi-0.dtd"
   xmlns:inkscape="http://www.inkscape.org/namespaces/inkscape"
   width="64px"
   height="64px"
   viewBox="0 0 64 64"
   version="1.1"
   id="svg21"
   sodipodi:docname="org.gnome.font-viewer.svg"
   inkscape:version="1.0.2 (e86c870879, 2021-01-15)">
  <metadata
     id="metadata27">
    <rdf:RDF>
      <cc:Work
         rdf:about="">
        <dc:format>image/svg+xml</dc:format>
        <dc:type
           rdf:resource="http://purl.org/dc/dcmitype/StillImage" />
      </cc:Work>
    </rdf:RDF>
  </metadata>
  <defs
     id="defs25" />
  <sodipodi:namedview
     pagecolor="#ffffff"
     bordercolor="#666666"
     borderopacity="1"
     objecttolerance="10"
     gridtolerance="10"
     guidetolerance="10"
     inkscape:pageopacity="0"
     inkscape:pageshadow="2"
     inkscape:window-width="2560"
     inkscape:window-height="1403"
     id="namedview23"
     showgrid="false"
     inkscape:zoom="15.75"
     inkscape:cx="32"
     inkscape:cy="32"
     inkscape:window-x="0"
     inkscape:window-y="0"
     inkscape:window-maximized="1"
     inkscape:current-layer="surface1" />
  <g
     id="surface1">
    <path
       style="fill:#d0ebee;fill-opacity:1;fill-rule:nonzero;stroke:none"
       d="m 14.550781,3.144531 h 35.71875 c 1.460938,0 2.648438,1.1875 2.648438,2.648438 v 52.914062 c 0,1.460938 -1.1875,2.648438 -2.648438,2.648438 h -35.71875 c -1.460937,0 -2.644531,-1.1875 -2.644531,-2.648438 V 5.792969 c 0,-1.460938 1.183594,-2.648438 2.644531,-2.648438 z m 0,0"
       id="path6" />
    <path
       style="fill:#0c0e11;fill-opacity:1;fill-rule:nonzero;stroke:none"
       d="m 10.582031,3.144531 c -1.464843,0 -2.644531,1.179688 -2.644531,2.648438 v 52.914062 c 0,1.46875 1.179688,2.648438 2.644531,2.648438 H 15.875 V 3.144531 Z m 0,0"
       id="path8" />
    <path
       style="fill:#2e3436;fill-opacity:1;fill-rule:nonzero;stroke:none"
       d="m 7.9375,30.925781 h 6.613281 v 2.648438 H 7.9375 Z m 0,0"
       id="path10" />
    <path
       style="fill:#2e3436;fill-opacity:1;fill-rule:nonzero;stroke:none"
       d="m 7.9375,16.375 h 6.613281 v 2.644531 H 7.9375 Z m 0,0"
       id="path12" />
    <path
       style="fill:#2e3436;fill-opacity:1;fill-rule:nonzero;stroke:none"
       d="m 7.9375,45.480469 h 6.613281 V 48.125 H 7.9375 Z m 0,0"
       id="path14" />
    <path
       style="fill:#2e3436;fill-opacity:1;fill-rule:nonzero;stroke:none"
       d="m 31.089844,19.019531 c -4.03125,0 -7.277344,2.953125 -7.277344,6.617188 v 13.890625 c 0,0.363281 0.296875,0.660156 0.660156,0.660156 h 1.324219 c 0.367187,0 0.660156,-0.296875 0.660156,-0.660156 v -5.953125 h 9.261719 v 5.953125 c 0,0.363281 0.296875,0.660156 0.660156,0.660156 h 1.324219 c 0.367187,0 0.660156,-0.296875 0.660156,-0.660156 V 25.636719 c 0,-3.664063 -3.242187,-6.617188 -7.273437,-6.617188 z m 0,2.648438 c 2.5625,0 4.628906,1.769531 4.628906,3.96875 v 5.289062 h -9.261719 v -5.289062 c 0,-2.199219 2.066407,-3.96875 4.632813,-3.96875 z m 0,0"
       id="path16" />
    <path
       style="fill:#0c0e11;fill-opacity:1;fill-rule:nonzero;stroke:none"
       d="m 37.703125,32.429688 c -4.03125,0 -7.277344,2.953124 -7.277344,6.617187 0,3.664063 3.246094,6.613281 7.277344,6.613281 1.761719,0 3.375,-0.5625 4.628906,-1.503906 V 45 c 0,0.367188 0.296875,0.660156 0.664063,0.660156 h 1.320312 c 0.367188,0 0.664063,-0.292968 0.664063,-0.660156 V 33.09375 c 0,-0.367188 -0.296875,-0.664062 -0.664063,-0.664062 h -1.320312 c -0.367188,0 -0.664063,0.296874 -0.664063,0.664062 v 0.84375 c -1.253906,-0.941406 -2.867187,-1.507812 -4.628906,-1.507812 z m 0,2.648437 c 2.566406,0 4.628906,1.769531 4.628906,3.96875 0,2.199219 -2.0625,3.96875 -4.628906,3.96875 -2.566406,0 -4.628906,-1.769531 -4.628906,-3.96875 0,-2.199219 2.0625,-3.96875 4.628906,-3.96875 z m 0,0"
       id="path18" />
  </g>
</svg>

<?xml version="1.0" encoding="UTF-8"?>
<svg xmlns="http://www.w3.org/2000/svg" xmlns:xlink="http://www.w3.org/1999/xlink" width="64px" height="64px" viewBox="0 0 64 64" version="1.1">
<g id="surface1">
<path style=" stroke:none;fill-rule:nonzero;fill:rgb(74.117649%,74.117649%,74.117649%);fill-opacity:1;" d="M 15.875 3.144531 L 52.917969 3.144531 C 54.378906 3.144531 55.5625 4.332031 55.5625 5.792969 L 55.5625 58.707031 C 55.5625 60.167969 54.378906 61.355469 52.917969 61.355469 L 15.875 61.355469 C 14.414062 61.355469 13.230469 60.167969 13.230469 58.707031 L 13.230469 5.792969 C 13.230469 4.332031 14.414062 3.144531 15.875 3.144531 Z M 15.875 3.144531 "/>
<path style=" stroke:none;fill-rule:nonzero;fill:rgb(96.078432%,96.078432%,96.078432%);fill-opacity:1;" d="M 14.550781 4.46875 L 52.917969 4.46875 C 53.648438 4.46875 54.238281 5.0625 54.238281 5.792969 L 54.238281 58.707031 C 54.238281 59.4375 53.648438 60.03125 52.917969 60.03125 L 14.550781 60.03125 C 13.820312 60.03125 13.230469 59.4375 13.230469 58.707031 L 13.230469 5.792969 C 13.230469 5.0625 13.820312 4.46875 14.550781 4.46875 Z M 14.550781 4.46875 "/>
<path style=" stroke:none;fill-rule:nonzero;fill:rgb(87.843138%,87.843138%,87.843138%);fill-opacity:1;" d="M 14.550781 3.144531 L 50.269531 3.144531 C 51.730469 3.144531 52.917969 4.332031 52.917969 5.792969 L 52.917969 58.707031 C 52.917969 60.167969 51.730469 61.355469 50.269531 61.355469 L 14.550781 61.355469 C 13.089844 61.355469 11.90625 60.167969 11.90625 58.707031 L 11.90625 5.792969 C 11.90625 4.332031 13.089844 3.144531 14.550781 3.144531 Z M 14.550781 3.144531 "/>
<path style=" stroke:none;fill-rule:nonzero;fill:rgb(25.882354%,25.882354%,25.882354%);fill-opacity:1;" d="M 10.582031 3.144531 C 9.117188 3.144531 7.9375 4.324219 7.9375 5.792969 L 7.9375 58.707031 C 7.9375 60.175781 9.117188 61.355469 10.582031 61.355469 L 15.875 61.355469 L 15.875 3.144531 Z M 10.582031 3.144531 "/>
<path style=" stroke:none;fill-rule:nonzero;fill:rgb(38.039216%,38.039216%,38.039216%);fill-opacity:1;" d="M 7.9375 30.925781 L 14.550781 30.925781 L 14.550781 33.574219 L 7.9375 33.574219 Z M 7.9375 30.925781 "/>
<path style=" stroke:none;fill-rule:nonzero;fill:rgb(38.039216%,38.039216%,38.039216%);fill-opacity:1;" d="M 7.9375 16.375 L 14.550781 16.375 L 14.550781 19.019531 L 7.9375 19.019531 Z M 7.9375 16.375 "/>
<path style=" stroke:none;fill-rule:nonzero;fill:rgb(38.039216%,38.039216%,38.039216%);fill-opacity:1;" d="M 7.9375 45.480469 L 14.550781 45.480469 L 14.550781 48.125 L 7.9375 48.125 Z M 7.9375 45.480469 "/>
<path style=" stroke:none;fill-rule:nonzero;fill:rgb(45.882353%,45.882353%,45.882353%);fill-opacity:1;" d="M 31.089844 19.019531 C 27.058594 19.019531 23.8125 21.972656 23.8125 25.636719 L 23.8125 39.527344 C 23.8125 39.890625 24.109375 40.1875 24.472656 40.1875 L 25.796875 40.1875 C 26.164062 40.1875 26.457031 39.890625 26.457031 39.527344 L 26.457031 33.574219 L 35.71875 33.574219 L 35.71875 39.527344 C 35.71875 39.890625 36.015625 40.1875 36.378906 40.1875 L 37.703125 40.1875 C 38.070312 40.1875 38.363281 39.890625 38.363281 39.527344 L 38.363281 25.636719 C 38.363281 21.972656 35.121094 19.019531 31.089844 19.019531 Z M 31.089844 21.667969 C 33.652344 21.667969 35.71875 23.4375 35.71875 25.636719 L 35.71875 30.925781 L 26.457031 30.925781 L 26.457031 25.636719 C 26.457031 23.4375 28.523438 21.667969 31.089844 21.667969 Z M 31.089844 21.667969 "/>
<path style=" stroke:none;fill-rule:nonzero;fill:rgb(25.882354%,25.882354%,25.882354%);fill-opacity:1;" d="M 37.703125 32.429688 C 33.671875 32.429688 30.425781 35.382812 30.425781 39.046875 C 30.425781 42.710938 33.671875 45.660156 37.703125 45.660156 C 39.464844 45.660156 41.078125 45.097656 42.332031 44.15625 L 42.332031 45 C 42.332031 45.367188 42.628906 45.660156 42.996094 45.660156 L 44.316406 45.660156 C 44.683594 45.660156 44.980469 45.367188 44.980469 45 L 44.980469 33.09375 C 44.980469 32.726562 44.683594 32.429688 44.316406 32.429688 L 42.996094 32.429688 C 42.628906 32.429688 42.332031 32.726562 42.332031 33.09375 L 42.332031 33.9375 C 41.078125 32.996094 39.464844 32.429688 37.703125 32.429688 Z M 37.703125 35.078125 C 40.269531 35.078125 42.332031 36.847656 42.332031 39.046875 C 42.332031 41.246094 40.269531 43.015625 37.703125 43.015625 C 35.136719 43.015625 33.074219 41.246094 33.074219 39.046875 C 33.074219 36.847656 35.136719 35.078125 37.703125 35.078125 Z M 37.703125 35.078125 "/>
</g>
</svg>
